X:16
T:Versevianna, The
T:Father Halpin's Top Coat
R:mazurka
H:Related to "Shoe the Donkey", #8, #12
B:Roche Collection 150
Z:id:hn-mazurka-16
M:3/4
L:1/8
K:G
Bc | B2 D2 Bc | B2 D2 Bc | d2 e2 d2 | A4 AB |
A2 D2 AB | A2 D2 AB | c2 e2 d2 | G4 :|
|: Bc | d2 g2 f2 | A4 AB | c2 e2 d2 | B4 Bc |
B2 A2 B2 | c4 AB | c2 e2 d2 | G4 :|
P:trio
|: Bc | d2 B2 d2 | g4 d2 | f2 e2 c2 | A4 G2 |
F2 A2 c2 | f4 e2 |1 ed ^cd ed | B4 :|2 ed cA FD | G4 ||

